;generated by ffslicer 2.2.2 08/03/24 10:48:50
;machine_type: Adventurer 3 Series
;right_extruder_material: PLA
;right_extruder_material_density: 1.24
;filament_diameter0: 1.75
;right_extruder_temperature: 210
;layer_height: 0.18
;perimeter_shells: 2
;top_solid_layers: 4
;bottom_solid_layers: 3
;fill_density: 15%
;fill_pattern: hexagon
;base_print_speed: 60
;travel_speed: 80
;platform_temperature: 50
;right_extruder_temperature_raft0: 0
;right_extruder_temperature_reset: 
;left_extruder_temperature_reset: 
;start gcode
M118 X33.37 Y20.60 Z5.90 T0
M140 S50 T0
M104 S210 T0
M104 S0 T1
M107
G90
G28
M132 X Y Z A B
G1 Z50.000 F420
G161 X Y F3300
M7 T0
M6 T0
M651 S255
;layer_count: 32
M108 T0
G1 X-6.79 Y20.60 F4800
;preExtrude:0.20
M106
G1 Z.200 F420
;structure:pre-extrude
G1 X-6.79 Y20.60 F4800
G1 X-14.18 Y20.60 E1.0717 F1200
G1 X-15.05 Y20.54 E1.1981
G1 X-16.04 Y20.37 E1.3438
G1 X-17.02 Y20.09 E1.4916
G1 X-17.95 Y19.69 E1.6384
G1 X-18.82 Y19.20 E1.7832
G1 X-19.65 Y18.61 E1.9309
G1 X-20.40 Y17.93 E2.0777
G1 X-21.06 Y17.18 E2.2225
G1 X-21.53 Y16.52 E2.3400
G1 X-28.29 Y6.16 E4.1339
G1 X-28.81 Y5.34 E4.2747
G1 X-29.34 Y4.38 E4.4338
G1 X-29.80 Y3.39 E4.5921
G1 X-30.20 Y2.37 E4.7509
G1 X-30.54 Y1.32 E4.9110
G1 X-30.81 Y.23 E5.0738
G1 X-31.01 Y-.84 E5.2317
G1 X-31.14 Y-1.92 E5.3894
G1 X-31.20 Y-3.00 E5.5463
G1 X-31.19 Y-4.09 E5.7044
G1 X-31.11 Y-5.18 E5.8629
G1 X-30.96 Y-6.29 E6.0253
G1 X-30.74 Y-7.35 E6.1823
G1 X-30.46 Y-8.41 E6.3413
G1 X-30.10 Y-9.45 E6.5009
G1 X-29.69 Y-10.46 E6.6589
G1 X-29.21 Y-11.44 E6.8172
G1 X-28.66 Y-12.40 E6.9776
G1 X-28.05 Y-13.32 E7.1377
G1 X-27.39 Y-14.19 E7.2960
G1 X-26.68 Y-15.02 E7.4544
G1 X-25.92 Y-15.80 E7.6124
G1 X-25.10 Y-16.54 E7.7725
G1 X-24.24 Y-17.22 E7.9315
G1 X-23.34 Y-17.85 E8.0908
G1 X-22.40 Y-18.41 E8.2495
G1 X-21.43 Y-18.92 E8.4084
G1 X-20.42 Y-19.36 E8.5682
G1 X-19.39 Y-19.74 E8.7274
G1 X-18.34 Y-20.04 E8.8857
G1 X-17.27 Y-20.29 E9.0451
G1 X-16.19 Y-20.46 E9.2036
G1 X-15.09 Y-20.57 E9.3639
G1 X-14.04 Y-20.60 E9.5163
G1 X14.12 Y-20.60 E13.5999
G1 X15.14 Y-20.56 E13.7479
G1 X16.24 Y-20.46 E13.9081
G1 X17.32 Y-20.28 E14.0669
G1 X18.39 Y-20.03 E14.2262
G1 X19.44 Y-19.72 E14.3850
G1 X20.47 Y-19.34 E14.5442
G1 X21.48 Y-18.89 E14.7045
G1 X22.45 Y-18.38 E14.8634
G1 X23.39 Y-17.82 E15.0221
G1 X24.29 Y-17.19 E15.1814
G1 X25.15 Y-16.50 E15.3413
G1 X25.96 Y-15.76 E15.5004
G1 X26.72 Y-14.98 E15.6583
G1 X27.43 Y-14.15 E15.8167
G1 X28.09 Y-13.26 E15.9774
G1 X28.69 Y-12.35 E16.1355
G1 X29.23 Y-11.39 E16.2952
G1 X29.71 Y-10.40 E16.4547
G1 X30.13 Y-9.39 E16.6134
G1 X30.48 Y-8.35 E16.7725
G1 X30.76 Y-7.29 E16.9315
G1 X30.97 Y-6.21 E17.0910
G1 X31.11 Y-5.13 E17.2489
G1 X31.19 Y-4.08 E17.4017
;raft
;layer:0.27
G1 E12.4017 F1500
G1 Z.270 F420
G1 X25.59 Y-3.86 F4200
G1 E17.4017 F1500
;structure:shell-inner
G1 X25.59 Y-3.86 F4200
G1 X25.60 Y-3.09 E17.4393 F600
G1 X25.55 Y-2.35 E17.4756
G1 X25.46 Y-1.60 E17.5126
G1 X25.33 Y-.90 E17.5475
G1 X25.14 Y-.17 E17.5844
G1 X24.91 Y.54 E17.6209
G1 X24.64 Y1.22 E17.6567
G1 X24.32 Y1.90 E17.6935
G1 X23.96 Y2.54 E17.7294
G1 X23.57 Y3.16 E17.7653
G1 X23.12 Y3.77 E17.8024
G1 X22.67 Y4.31 E17.8368
G1 X22.14 Y4.86 E17.8742
G1 X21.60 Y5.37 E17.9105
G1 X21.03 Y5.83 E17.9464
G1 X20.42 Y6.26 E17.9829
G1 X19.80 Y6.65 E18.0187
G1 X19.13 Y7.00 E18.0557
G1 X18.47 Y7.31 E18.0914
G1 X17.40 Y7.71 E18.1473
G1 X17.40 Y11.59 E18.3372
G1 X17.38 Y12.00 E18.3573
G1 X17.31 Y12.37 E18.3757
G1 X17.20 Y12.74 E18.3946
G1 X17.06 Y13.08 E18.4126
G1 X16.87 Y13.42 E18.4317
G1 X16.64 Y13.74 E18.4510
G1 X16.39 Y14.02 E18.4694
G1 X16.11 Y14.26 E18.4874
G1 X15.79 Y14.49 E18.5067
G1 X15.46 Y14.67 E18.5251
G1 X15.11 Y14.81 E18.5435
G1 X14.74 Y14.92 E18.5624
G1 X14.37 Y14.98 E18.5808
G1 X13.99 Y15.00 E18.5994
G1 X13.60 Y14.97 E18.6185
G1 X13.23 Y14.91 E18.6369
G1 X12.86 Y14.80 E18.6558
G1 X12.52 Y14.66 E18.6738
G1 X12.18 Y14.47 E18.6928
G1 X11.86 Y14.24 E18.7121
G1 X11.59 Y13.99 E18.7301
G1 X11.33 Y13.70 E18.7492
G1 X11.12 Y13.40 E18.7671
G1 X10.93 Y13.05 E18.7866
G1 X10.79 Y12.71 E18.8046
G1 X10.69 Y12.34 E18.8234
G1 X10.62 Y11.97 E18.8418
G1 X10.60 Y11.58 E18.8609
G1 X10.60 Y7.72 E19.0498
G1 X9.47 Y7.28 E19.1092
G1 X8.80 Y6.97 E19.1453
G1 X8.14 Y6.61 E19.1821
G1 X7.53 Y6.23 E19.2173
G1 X6.94 Y5.80 E19.2530
G1 X6.35 Y5.32 E19.2902
G1 X5.81 Y4.82 E19.3263
G1 X5.31 Y4.28 E19.3623
G1 X4.83 Y3.70 E19.3991
G1 X4.40 Y3.10 E19.4352
G1 X4.01 Y2.49 E19.4707
G1 X3.65 Y1.82 E19.5079
G1 X3.34 Y1.16 E19.5436
G1 X3.07 Y.47 E19.5799
G1 X2.85 Y-.22 E19.6153
G1 X2.66 Y-.95 E19.6522
G1 X2.53 Y-1.68 E19.6885
G1 X2.45 Y-2.41 E19.7244
G1 X2.41 Y-3.15 E19.7607
G1 X2.41 Y-3.89 E19.7969
G1 X2.47 Y-4.63 E19.8333
G1 X2.57 Y-5.35 E19.8688
G1 X2.72 Y-6.10 E19.9063
G1 X2.91 Y-6.79 E19.9413
G1 X3.15 Y-7.50 E19.9780
G1 X3.43 Y-8.17 E20.0135
G1 X3.77 Y-8.86 E20.0512
G1 X4.13 Y-9.48 E20.0863
G1 X4.53 Y-10.10 E20.1224
G1 X4.98 Y-10.69 E20.1587
G1 X5.47 Y-11.26 E20.1955
G1 X5.97 Y-11.77 E20.2304
G1 X6.55 Y-12.29 E20.2686
G1 X7.12 Y-12.73 E20.3038
G1 X7.72 Y-13.15 E20.3396
G1 X8.37 Y-13.54 E20.3767
G1 X9.02 Y-13.88 E20.4126
G1 X9.69 Y-14.17 E20.4484
G1 X10.40 Y-14.42 E20.4852
G1 X11.10 Y-14.63 E20.5210
G1 X11.83 Y-14.79 E20.5576
G1 X12.55 Y-14.91 E20.5933
G1 X13.29 Y-14.98 E20.6297
G1 X14.03 Y-15.00 E20.6659
G1 X14.79 Y-14.97 E20.7031
G1 X15.51 Y-14.90 E20.7385
G1 X16.24 Y-14.78 E20.7747
G1 X16.97 Y-14.61 E20.8114
G1 X17.66 Y-14.41 E20.8466
G1 X18.37 Y-14.15 E20.8836
G1 X19.05 Y-13.84 E20.9202
G1 X19.69 Y-13.51 E20.9554
G1 X20.34 Y-13.12 E20.9925
G1 X20.94 Y-12.70 E21.0283
G1 X21.11 Y-12.56 E21.0391
G1 X21.51 Y-12.24 E21.0642
G1 X22.07 Y-11.74 E21.1009
G1 X22.57 Y-11.21 E21.1366
G1 X22.58 Y-11.20 E21.1373
G1 X23.06 Y-10.65 E21.1730
G1 X23.50 Y-10.06 E21.2090
G1 X23.79 Y-9.61 E21.2352
G1 X23.91 Y-9.42 E21.2462
G1 X24.27 Y-8.80 E21.2813
G1 X24.59 Y-8.12 E21.3181
G1 X24.71 Y-7.84 E21.3330
G1 X24.87 Y-7.44 E21.3541
G1 X25.11 Y-6.73 E21.3908
G1 X25.30 Y-6.03 E21.4263
G1 X25.31 Y-5.94 E21.4307
G1 X25.45 Y-5.27 E21.4642 F540
G1 X25.54 Y-4.58 E21.4983
G1 X25.58 Y-3.96 E21.5287
;structure:shell-outer
G1 X25.99 Y-3.88 E21.5287 F300
G1 X26.00 Y-3.08 E21.5678 F600
G1 X25.95 Y-2.32 E21.6051
G1 X25.86 Y-1.54 E21.6435
G1 X25.72 Y-.80 E21.6804
G1 X25.52 Y-.05 E21.7184
G1 X25.29 Y.67 E21.7554
G1 X25.01 Y1.38 E21.7927
G1 X24.68 Y2.08 E21.8306
G1 X24.31 Y2.74 E21.8676
G1 X23.89 Y3.39 E21.9055
G1 X23.44 Y4.01 E21.9430
G1 X22.95 Y4.59 E21.9802
G1 X22.43 Y5.14 E22.0172
G1 X21.85 Y5.67 E22.0557
G1 X21.27 Y6.15 E22.0925
G1 X20.64 Y6.60 E22.1304
G1 X19.99 Y7.00 E22.1678
G1 X19.32 Y7.35 E22.2048
G1 X18.62 Y7.67 E22.2424
G1 X17.80 Y7.99 E22.2855
G1 X17.80 Y11.61 E22.4627
G1 X17.77 Y12.05 E22.4843
G1 X17.70 Y12.46 E22.5046
G1 X17.58 Y12.87 E22.5255
G1 X17.42 Y13.26 E22.5462
G1 X17.21 Y13.64 E22.5674
G1 X16.96 Y13.99 E22.5885
G1 X16.67 Y14.30 E22.6092
G1 X16.36 Y14.58 E22.6297
G1 X16.00 Y14.83 E22.6511
G1 X15.64 Y15.03 E22.6713
G1 X15.23 Y15.19 E22.6928
G1 X14.83 Y15.31 E22.7133
G1 X14.41 Y15.38 E22.7341
G1 X13.98 Y15.40 E22.7552
G1 X13.55 Y15.37 E22.7763
G1 X13.14 Y15.30 E22.7966
G1 X12.73 Y15.18 E22.8175
G1 X12.34 Y15.02 E22.8382
G1 X11.96 Y14.80 E22.8597
G1 X11.62 Y14.56 E22.8800
G1 X11.31 Y14.28 E22.9005
G1 X11.02 Y13.95 E22.9220
G1 X10.78 Y13.61 E22.9423
G1 X10.57 Y13.22 E22.9640
G1 X10.41 Y12.84 E22.9842
G1 X10.29 Y12.43 E23.0051
G1 X10.23 Y12.01 E23.0259
G1 X10.20 Y11.59 E23.0465
G1 X10.20 Y7.99 E23.2227
G1 X9.32 Y7.65 E23.2688
G1 X8.62 Y7.32 E23.3067
G1 X7.95 Y6.96 E23.3439
G1 X7.31 Y6.56 E23.3809
G1 X6.69 Y6.11 E23.4184
G1 X6.09 Y5.62 E23.4563
G1 X5.53 Y5.10 E23.4937
G1 X5.00 Y4.54 E23.5314
G1 X4.52 Y3.96 E23.5683
G1 X4.07 Y3.33 E23.6062
G1 X3.67 Y2.69 E23.6431
G1 X3.29 Y2.01 E23.6812
G1 X2.97 Y1.32 E23.7185
G1 X2.69 Y.60 E23.7563
G1 X2.46 Y-.11 E23.7928
G1 X2.27 Y-.86 E23.8307
G1 X2.14 Y-1.62 E23.8684
G1 X2.05 Y-2.38 E23.9059
G1 X2.01 Y-3.15 E23.9436
G1 X2.01 Y-3.91 E23.9808
G1 X2.07 Y-4.66 E24.0176
G1 X2.17 Y-5.42 E24.0551
G1 X2.33 Y-6.18 E24.0931
G1 X2.53 Y-6.91 E24.1302
G1 X2.78 Y-7.63 E24.1675
G1 X3.07 Y-8.34 E24.2050
G1 X3.41 Y-9.04 E24.2431
G1 X3.79 Y-9.69 E24.2800
G1 X4.22 Y-10.34 E24.3181
G1 X4.67 Y-10.94 E24.3548
G1 X5.17 Y-11.52 E24.3923
G1 X5.71 Y-12.07 E24.4300
G1 X6.29 Y-12.59 E24.4681
G1 X6.88 Y-13.06 E24.5051
G1 X7.51 Y-13.49 E24.5424
G1 X8.17 Y-13.89 E24.5802
G1 X8.86 Y-14.24 E24.6180
G1 X9.55 Y-14.54 E24.6548
G1 X10.27 Y-14.80 E24.6923
G1 X11.01 Y-15.02 E24.7301
G1 X11.75 Y-15.18 E24.7672
G1 X12.51 Y-15.31 E24.8049
G1 X13.27 Y-15.38 E24.8422
G1 X14.04 Y-15.40 E24.8799
G1 X14.80 Y-15.37 E24.9172
G1 X15.57 Y-15.30 E24.9550
G1 X16.31 Y-15.18 E24.9917
G1 X17.06 Y-15.00 E25.0294
G1 X17.80 Y-14.78 E25.0672
G1 X18.52 Y-14.52 E25.1047
G1 X19.22 Y-14.21 E25.1422
G1 X19.89 Y-13.86 E25.1792
G1 X20.55 Y-13.45 E25.2172
G1 X21.17 Y-13.02 E25.2541
G1 X21.77 Y-12.55 E25.2914
G1 X22.35 Y-12.02 E25.3299
G1 X22.87 Y-11.48 E25.3666
G1 X23.37 Y-10.90 E25.4040
G1 X23.83 Y-10.29 E25.4414
G1 X24.25 Y-9.64 E25.4793
G1 X24.62 Y-8.98 E25.5163
G1 X24.96 Y-8.29 E25.5540
G1 X25.25 Y-7.58 E25.5915
G1 X25.50 Y-6.85 E25.6293
G1 X25.69 Y-6.12 E25.6662
G1 X25.84 Y-5.36 E25.7041
G1 X25.94 Y-4.61 E25.7411
G1 X25.98 Y-3.98 E25.7720
G1 X25.58 Y-3.96 E25.7786 F300
G1 X22.65 Y-10.60 F4200
;structure:infill-solid
G1 X22.65 Y-10.60
G1 X21.19 Y-12.06 E25.8796 F600
G1 X20.73 Y-12.43 E25.9085
G1 X20.16 Y-12.82 E25.9423
G1 X19.41 Y-13.27 E25.9851
G1 X23.86 Y-8.82 E26.2931
G1 X23.96 Y-8.64 E26.3032
G1 X24.28 Y-7.99 E26.3387
G1 X24.39 Y-7.73 E26.3525
G1 X18.32 Y-13.79 E26.7723
G1 X18.24 Y-13.83 E26.7766
G1 X17.43 Y-14.12 E26.8188
G1 X24.72 Y-6.83 E27.3233
G1 X24.94 Y-6.04 E27.3635
G1 X16.64 Y-14.34 E27.9379
G1 X15.93 Y-14.49 E27.9735
G1 X25.09 Y-5.32 E28.6078
G1 X25.19 Y-4.66 E28.6405
G1 X15.27 Y-14.58 E29.3271
G1 X14.64 Y-14.63 E29.3580
G1 X25.24 Y-4.04 E30.0914
G1 X25.25 Y-3.46 E30.1197
G1 X14.06 Y-14.65 E30.8943
G1 X13.51 Y-14.64 E30.9212
G1 X25.24 Y-2.90 E31.7334
G1 X25.20 Y-2.38 E31.7589
G1 X12.98 Y-14.60 E32.6047
G1 X12.46 Y-14.55 E32.6303
G1 X25.15 Y-1.86 E33.5086
G1 X25.07 Y-1.37 E33.5329
G1 X11.97 Y-14.47 E34.4397
G1 X11.51 Y-14.37 E34.4627
G1 X24.98 Y-.90 E35.3950
G1 X24.86 Y-.45 E35.4178
G1 X11.06 Y-14.25 E36.3730
G1 X10.61 Y-14.13 E36.3958
G1 X24.73 Y-.01 E37.3731
G1 X24.59 Y.42 E37.3952
G1 X10.19 Y-13.99 E38.3923
G1 X9.77 Y-13.83 E38.4143
G1 X24.43 Y.82 E39.4286
G1 X24.26 Y1.22 E39.4499
G1 X9.38 Y-13.66 E40.4798
G1 X9.00 Y-13.48 E40.5004
G1 X24.08 Y1.61 E41.5445
G1 X23.89 Y1.98 E41.5648
G1 X8.62 Y-13.28 E42.6214
G1 X8.26 Y-13.08 E42.6416
G1 X23.68 Y2.34 E43.7088
G1 X23.46 Y2.69 E43.7291
G1 X7.91 Y-12.87 E44.8057
G1 X7.57 Y-12.63 E44.8261
G1 X23.24 Y3.03 E45.9103
G1 X23.00 Y3.36 E45.9303
G1 X7.24 Y-12.40 E47.0211
G1 X6.92 Y-12.15 E47.0410
G1 X22.75 Y3.68 E48.1367
G1 X22.49 Y3.99 E48.1565
G1 X6.62 Y-11.89 E49.2553
G1 X6.32 Y-11.62 E49.2750
G1 X22.22 Y4.28 E50.3755
G1 X21.94 Y4.57 E50.3953
G1 X6.03 Y-11.34 E51.4965
G1 X5.75 Y-11.05 E51.5162
G1 X21.65 Y4.85 E52.6167
G1 X21.36 Y5.12 E52.6361
G1 X5.49 Y-10.75 E53.7345
G1 X5.22 Y-10.45 E53.7543
G1 X21.04 Y5.37 E54.8493
G1 X20.73 Y5.62 E54.8688
G1 X4.98 Y-10.12 E55.9586
G1 X4.74 Y-9.79 E55.9785
G1 X20.40 Y5.86 E57.0621
G1 X20.05 Y6.09 E57.0826
G1 X4.51 Y-9.45 E58.1582
G1 X4.30 Y-9.10 E58.1782
G1 X19.70 Y6.30 E59.2441
G1 X19.34 Y6.51 E59.2645
G1 X4.09 Y-8.74 E60.3200
G1 X3.90 Y-8.36 E60.3408
G1 X18.97 Y6.70 E61.3835
G1 X18.58 Y6.88 E61.4045
G1 X3.72 Y-7.98 E62.4331
G1 X3.55 Y-7.58 E62.4543
G1 X18.18 Y7.05 E63.4670
G1 X17.77 Y7.21 E63.4885
G1 X3.40 Y-7.17 E64.4835
G1 X3.25 Y-6.75 E64.5053
G1 X17.36 Y7.36 E65.4819
G1 X17.06 Y7.48 E65.4977
G1 X17.06 Y7.63 E65.5051
G1 X3.13 Y-6.30 E66.4692
G1 X3.02 Y-5.85 E66.4919
G1 X17.06 Y8.20 E67.4640
G1 X17.06 Y8.76 E67.4914
G1 X2.92 Y-5.38 E68.4701
G1 X2.85 Y-4.88 E68.4948
G1 X17.06 Y9.33 E69.4784
G1 X17.06 Y9.90 E69.5063
G1 X2.79 Y-4.37 E70.4940
G1 X2.75 Y-3.84 E70.5200
G1 X17.06 Y10.46 E71.5101
G1 X17.06 Y11.03 E71.5380
G1 X2.75 Y-3.28 E72.5285
G1 X2.77 Y-2.69 E72.5574
G1 X17.06 Y11.60 E73.5464
G1 X17.01 Y12.11 E73.5715
G1 X2.83 Y-2.07 E74.5530
G1 X2.93 Y-1.40 E74.5861
G1 X16.89 Y12.56 E75.5524
G1 X16.72 Y12.96 E75.5736
G1 X3.08 Y-.68 E76.5177
G1 X3.31 Y.12 E76.5585
G1 X10.51 Y7.31 E77.0565
G1 X10.94 Y7.48 E77.0791
G1 X10.94 Y7.75 E77.0923
G1 X16.52 Y13.32 E77.4782
G1 X16.27 Y13.64 E77.4981
G1 X10.94 Y8.31 E77.8670
G1 X10.94 Y8.88 E77.8949
G1 X15.97 Y13.92 E78.2434
G1 X15.65 Y14.16 E78.2630
G1 X10.94 Y9.45 E78.5890
G1 X10.94 Y10.02 E78.6169
G1 X15.29 Y14.37 E78.9180
G1 X14.88 Y14.52 E78.9393
G1 X10.94 Y10.58 E79.2120
G1 X10.94 Y11.15 E79.2399
G1 X14.41 Y14.62 E79.4801
G1 X13.87 Y14.64 E79.5065
G1 X10.95 Y11.73 E79.7083
G1 X10.96 Y11.94 E79.7186
G1 X11.06 Y12.40 E79.7416
G1 X13.20 Y14.55 E79.8901
G1 X12.67 Y14.35 E79.9178
G1 X12.36 Y14.18 E79.9351
G1 X12.08 Y13.98 E79.9520
G1 X11.79 Y13.70 E79.9717
G1 X10.36 Y7.88 F4200
G1 X9.58 Y6.95
G1 X9.58 Y6.95
G1 X3.65 Y1.02 E80.3821 F600
G1 X3.87 Y1.51 E80.4084
G1 X4.22 Y2.16 E80.4446
G1 X8.45 Y6.39 E80.7373
G1 X7.74 Y5.96 E80.7780
G1 X7.00 Y5.41 E80.8231
G1 X6.57 Y5.05 E80.8505
G1 X5.85 Y4.35 E80.8997
G1 E75.8997 F1500
G1 X-4.20 Y-3.50 F4200
G1 E80.8997 F1500
;structure:shell-inner
G1 X-4.20 Y-3.50 F4200
G1 X-4.24 Y-4.28 E80.9379 F600
G1 X-4.33 Y-4.99 E80.9729
G1 X-4.46 Y-5.67 E81.0068
G1 X-4.65 Y-6.36 E81.0419
G1 X-4.90 Y-7.05 E81.0778
G1 X-5.19 Y-7.71 E81.1130
G1 X-5.53 Y-8.33 E81.1477
G1 X-5.92 Y-8.94 E81.1831
G1 X-6.34 Y-9.52 E81.2181
G1 X-6.82 Y-10.07 E81.2539
G1 X-7.32 Y-10.58 E81.2888
G1 X-7.88 Y-11.05 E81.3246
G1 X-8.45 Y-11.48 E81.3596
G1 X-9.06 Y-11.87 E81.3950
G1 X-9.69 Y-12.20 E81.4298
G1 X-10.36 Y-12.50 E81.4657
G1 X-11.04 Y-12.74 E81.5010
G1 X-11.74 Y-12.94 E81.5366
G1 X-12.50 Y-13.08 E81.5745
G1 X-13.80 Y-13.25 E81.6386
G1 X-13.80 Y-10.80 E81.7585
G1 X-14.20 Y-10.80 E81.7781
G1 X-14.20 Y-13.25 E81.8980
G1 X-15.60 Y-13.07 E81.9671
G1 X-16.29 Y-12.93 E82.0016
G1 X-16.99 Y-12.73 E82.0372
G1 X-17.67 Y-12.48 E82.0727
G1 X-18.33 Y-12.19 E82.1079
G1 X-18.96 Y-11.85 E82.1430
G1 X-19.56 Y-11.47 E82.1777
G1 X-20.14 Y-11.03 E82.2134
G1 X-20.69 Y-10.55 E82.2491
G1 X-21.20 Y-10.04 E82.2844
G1 X-21.66 Y-9.50 E82.3191
G1 X-22.10 Y-8.92 E82.3547
G1 X-22.48 Y-8.31 E82.3899
G1 X-22.82 Y-7.67 E82.4254
G1 X-23.10 Y-7.02 E82.4600
G1 X-23.35 Y-6.33 E82.4960
G1 X-23.54 Y-5.64 E82.5310
G1 X-23.68 Y-4.95 E82.5654
G1 X-23.76 Y-4.23 E82.6009
G1 X-23.80 Y-3.50 E82.6367
G1 X-23.78 Y-2.78 E82.6719
G1 X-23.71 Y-2.07 E82.7068
G1 X-23.58 Y-1.36 E82.7422
G1 X-23.40 Y-.65 E82.7780
G1 X-23.17 Y.04 E82.8136
G1 X-22.90 Y.70 E82.8485
G1 X-22.58 Y1.34 E82.8835
G1 X-22.20 Y1.97 E82.9195
G1 X-21.79 Y2.55 E82.9543
G1 X-21.33 Y3.10 E82.9894
G1 X-20.83 Y3.63 E83.0251
G1 X-20.29 Y4.11 E83.0604
G1 X-19.73 Y4.55 E83.0953
G1 X-19.12 Y4.96 E83.1312
G1 X-18.50 Y5.31 E83.1661
G1 X-17.84 Y5.62 E83.2018
G1 X-17.16 Y5.87 E83.2372
G1 X-16.48 Y6.08 E83.2721
G1 X-15.77 Y6.24 E83.3077
G1 X-15.07 Y6.34 E83.3423
G1 X-14.34 Y6.39 E83.3781
G1 X-13.63 Y6.39 E83.4129
G1 X-12.90 Y6.34 E83.4487
G1 X-12.20 Y6.23 E83.4833
G1 X-11.48 Y6.07 E83.5195
G1 X-10.80 Y5.87 E83.5541
G1 X-10.12 Y5.60 E83.5899
G1 X-9.47 Y5.29 E83.6252
G1 X-8.87 Y4.95 E83.6589
G1 X-8.84 Y4.94 E83.6605
G1 X-8.25 Y4.53 E83.6956
G1 X-7.68 Y4.09 E83.7309
G1 X-7.29 Y3.74 E83.7565
G1 X-7.15 Y3.61 E83.7659
G1 X-6.65 Y3.08 E83.8015
G1 X-6.20 Y2.53 E83.8363
G1 X-5.98 Y2.23 E83.8545
G1 X-5.78 Y1.93 E83.8722
G1 X-5.41 Y1.31 E83.9075
G1 X-5.08 Y.67 E83.9428
G1 X-5.01 Y.49 E83.9522
G1 X-4.81 Y.00 E83.9781
G1 X-4.58 Y-.70 E84.0142
G1 X-4.40 Y-1.41 E84.0500
G1 X-4.28 Y-2.12 E84.0853 F540
G1 X-4.22 Y-2.83 E84.1202
G1 X-4.20 Y-3.39 E84.1476
;structure:shell-outer
G1 X-4.60 Y-3.50 E84.1476 F300
G1 X-4.64 Y-4.24 E84.1839 F600
G1 X-4.72 Y-4.92 E84.2174
G1 X-4.86 Y-5.59 E84.2509
G1 X-5.04 Y-6.24 E84.2839
G1 X-5.27 Y-6.89 E84.3176
G1 X-5.55 Y-7.53 E84.3518
G1 X-5.88 Y-8.14 E84.3857
G1 X-6.25 Y-8.72 E84.4194
G1 X-6.66 Y-9.27 E84.4530
G1 X-7.11 Y-9.80 E84.4870
G1 X-7.60 Y-10.29 E84.5209
G1 X-8.12 Y-10.74 E84.5546
G1 X-8.68 Y-11.15 E84.5886
G1 X-9.26 Y-11.52 E84.6222
G1 X-9.87 Y-11.85 E84.6562
G1 X-10.51 Y-12.13 E84.6904
G1 X-11.16 Y-12.36 E84.7241
G1 X-11.82 Y-12.54 E84.7576
G1 X-12.57 Y-12.69 E84.7950
G1 X-13.40 Y-12.79 E84.8359
